src/mimes/48/text-x-qml.svg

<svg width="48" height="48" version="1.1" xmlns="http://www.w3.org/2000/svg">
 <defs>
  <linearGradient id="b" x1="25.132" x2="25.132" y1=".98521" y2="47.013" gradientTransform="matrix(1 0 0 .95617 9.9862e-8 -.51792)" gradientUnits="userSpaceOnUse">
   <stop stop-color="#dadada" offset="0"/>
   <stop stop-color="#fff" offset="1"/>
  </linearGradient>
  <radialGradient id="a" cx="26.53" cy="23.566" r="17.5" gradientTransform="matrix(-1.7302 -.0033869 .0034626 -1.7689 87.322 43.647)" gradientUnits="userSpaceOnUse">
   <stop stop-opacity=".65926" offset="0"/>
   <stop stop-color="#cecece" stop-opacity="0" offset="1"/>
  </radialGradient>
  <linearGradient id="c" x1="91.308" x2="95.182" y1="98.192" y2="102.07" gradientTransform="matrix(.56521 0 0 -.60266 -19.183 70.781)" gradientUnits="userSpaceOnUse">
   <stop stop-color="#fcfcfc" offset="0"/>
   <stop stop-color="#c1c1c1" offset="1"/>
  </linearGradient>
 </defs>
 <path d="m6.5 1.8722c5.8015 0 21.021 0.00228 21.021 0.00228l13.979 14.352 3.6e-5 29.651h-35v-44.006z" fill="none" stroke="#000" stroke-opacity=".54902"/>
 <path d="m6.5 1.8942c5.8015 0 20.954 0.00228 20.954 0.00228l14.046 14.33 3.6e-5 29.673h-35v-44.006z" fill="url(#b)"/>
 <path d="m13.5 19.25c-0.4155 0-0.75 0.3345-0.75 0.75v15c0 0.4155 0.3345 0.75 0.75 0.75h21c0.4155 0 0.75-0.3345 0.75-0.75v-15c0-0.4155-0.3345-0.75-0.75-0.75zm15 0.75a0.75 0.75 0 0 1 0.75 0.75 0.75 0.75 0 0 1-0.75 0.75 0.75 0.75 0 0 1-0.75-0.75 0.75 0.75 0 0 1 0.75-0.75zm2.25 0a0.75 0.75 0 0 1 0.75 0.75 0.75 0.75 0 0 1-0.75 0.75 0.75 0.75 0 0 1-0.75-0.75 0.75 0.75 0 0 1 0.75-0.75zm2.25 0a0.75 0.75 0 0 1 0.75 0.75 0.75 0.75 0 0 1-0.75 0.75 0.75 0.75 0 0 1-0.75-0.75 0.75 0.75 0 0 1 0.75-0.75zm-19.5 2.25h4.5v12.75h-4.5zm5.25 0h15.75v12.75h-15.75z" fill="#80e06a" fill-rule="evenodd" style="paint-order:fill markers stroke"/>
 <path d="m6.5 1.8942c5.8015 0 20.954 0.00228 20.954 0.00228l14.046 14.33 3.6e-5 29.673h-35v-44.006z" fill="url(#a)"/>
 <rect x="19.632" y="1.8722" width="21.868" height="24.125" fill="none"/>
 <path d="m29.349 14.212c-0.04524-3.4428 0.09264-9.2334-1.8427-12.276 0 0 12.641 12.709 13.994 14.29 0 0-2.3483-1.8776-12.152-2.0143z" fill="url(#c)"/>
</svg>

<svg width="48" height="48" xmlns="http://www.w3.org/2000/svg"><defs><linearGradient id="a" x1="25.132" x2="25.132" y1=".985" y2="47.013" gradientTransform="matrix(1 0 0 .95617 0 -.518)" gradientUnits="userSpaceOnUse"><stop stop-color="#dadada" offset="0"/><stop stop-color="#fff" offset="1"/></linearGradient><linearGradient id="c" x1="91.308" x2="95.182" y1="98.192" y2="102.07" gradientTransform="matrix(.56521 0 0 -.60266 -19.183 70.781)" gradientUnits="userSpaceOnUse"><stop stop-color="#fcfcfc" offset="0"/><stop stop-color="#c1c1c1" offset="1"/></linearGradient><radialGradient id="b" cx="26.53" cy="23.566" r="17.5" gradientTransform="matrix(-1.7302 -.00339 .00346 -1.7689 87.322 43.647)" gradientUnits="userSpaceOnUse"><stop stop-opacity=".659" offset="0"/><stop stop-color="#cecece" stop-opacity="0" offset="1"/></radialGradient></defs><path d="m6.5 1.872 21.021.002L41.5 16.226v29.651h-35V1.871z" fill="none" stroke="#000" stroke-opacity=".549"/><path d="m6.5 1.894 20.954.002L41.5 16.226V45.9h-35V1.893z" fill="url(#a)"/><path d="M13.5 19.25a.748.748 0 0 0-.75.75v15c0 .415.335.75.75.75h21c.415 0 .75-.335.75-.75V20a.748.748 0 0 0-.75-.75zm15 .75a.75.75 0 0 1 .75.75.75.75 0 0 1-.75.75.75.75 0 0 1-.75-.75.75.75 0 0 1 .75-.75zm2.25 0a.75.75 0 0 1 .75.75.75.75 0 0 1-.75.75.75.75 0 0 1-.75-.75.75.75 0 0 1 .75-.75zM33 20a.75.75 0 0 1 .75.75.75.75 0 0 1-.75.75.75.75 0 0 1-.75-.75A.75.75 0 0 1 33 20zm-19.5 2.25H18V35h-4.5zm5.25 0H34.5V35H18.75z" fill="#80e06a" fill-rule="evenodd" style="paint-order:fill markers stroke"/><path d="m6.5 1.894 20.954.002L41.5 16.226V45.9h-35V1.893z" fill="url(#b)"/><path fill="none" d="M19.632 1.872H41.5v24.125H19.632z"/><path d="M29.349 14.212c-.045-3.443.093-9.233-1.843-12.276 0 0 12.641 12.709 13.994 14.29 0 0-2.348-1.878-12.152-2.014z" fill="url(#c)"/></svg>
